static/fa/svgs/solid/network-wired.svg

<svg xmlns="http://www.w3.org/2000/svg" viewBox="0 0 640 512"><!--! Font Awesome Free 6.1.1 by @fontawesome - https://fontawesome.com License - https://fontawesome.com/license/free (Icons: CC BY 4.0, Fonts: SIL OFL 1.1, Code: MIT License) Copyright 2022 Fonticons, Inc.--><path d="M400 0c26.5 0 48 21.49 48 48v96c0 26.5-21.5 48-48 48h-48v32h256c17.7 0 32 14.3 32 32s-14.3 32-32 32h-96v32h48c26.5 0 48 21.5 48 48v96c0 26.5-21.5 48-48 48H400c-26.5 0-48-21.5-48-48v-96c0-26.5 21.5-48 48-48h48v-32H192v32h48c26.5 0 48 21.5 48 48v96c0 26.5-21.5 48-48 48H80c-26.51 0-48-21.5-48-48v-96c0-26.5 21.49-48 48-48h48v-32H32c-17.67 0-32-14.3-32-32s14.33-32 32-32h256v-32h-48c-26.5 0-48-21.5-48-48V48c0-26.51 21.5-48 48-48h160zM256 64v64h128V64H256zm-32 384v-64H96v64h128zm192-64v64h128v-64H416z"/></svg>

<svg xmlns="http://www.w3.org/2000/svg" viewBox="0 0 640 512"><!--! Font Awesome Free 6.1.1 by @fontawesome - https://fontawesome.com License - https://fontawesome.com/license/free (Icons: CC BY 4.0, Fonts: SIL OFL 1.1, Code: MIT License) Copyright 2022 Fonticons, Inc. --><path d="M400 0C426.5 0 448 21.49 448 48V144C448 170.5 426.5 192 400 192H352V224H608C625.7 224 640 238.3 640 256C640 273.7 625.7 288 608 288H512V320H560C586.5 320 608 341.5 608 368V464C608 490.5 586.5 512 560 512H400C373.5 512 352 490.5 352 464V368C352 341.5 373.5 320 400 320H448V288H192V320H240C266.5 320 288 341.5 288 368V464C288 490.5 266.5 512 240 512H80C53.49 512 32 490.5 32 464V368C32 341.5 53.49 320 80 320H128V288H32C14.33 288 0 273.7 0 256C0 238.3 14.33 224 32 224H288V192H240C213.5 192 192 170.5 192 144V48C192 21.49 213.5 0 240 0H400zM256 64V128H384V64H256zM224 448V384H96V448H224zM416 384V448H544V384H416z"/></svg>
